src/symbolic/status/mail-unread-symbolic.svg

<?xml version="1.0" encoding="UTF-8" standalone="no"?>
<svg
   xmlns:osb="http://www.openswatchbook.org/uri/2009/osb"
   xmlns:dc="http://purl.org/dc/elements/1.1/"
   xmlns:cc="http://creativecommons.org/ns#"
   xmlns:rdf="http://www.w3.org/1999/02/22-rdf-syntax-ns#"
   xmlns:svg="http://www.w3.org/2000/svg"
   xmlns="http://www.w3.org/2000/svg"
   xmlns:sodipodi="http://sodipodi.sourceforge.net/DTD/sodipodi-0.dtd"
   xmlns:inkscape="http://www.inkscape.org/namespaces/inkscape"
   height="16"
   id="svg7384"
   style="enable-background:new"
   version="1.1"
   width="16"
   sodipodi:docname="mail-unread-symbolic.svg"
   inkscape:version="0.92.4 (5da689c313, 2019-01-14)">
  <sodipodi:namedview
     pagecolor="#ffffff"
     bordercolor="#666666"
     borderopacity="1"
     objecttolerance="10"
     gridtolerance="10"
     guidetolerance="10"
     inkscape:pageopacity="0"
     inkscape:pageshadow="2"
     inkscape:window-width="1366"
     inkscape:window-height="708"
     id="namedview20"
     showgrid="false"
     inkscape:zoom="14.75"
     inkscape:cx="-0.47457627"
     inkscape:cy="8"
     inkscape:window-x="0"
     inkscape:window-y="34"
     inkscape:window-maximized="1"
     inkscape:current-layer="svg7384" />
  <metadata
     id="metadata90">
    <rdf:RDF>
      <cc:Work
         rdf:about="">
        <dc:format>image/svg+xml</dc:format>
        <dc:type
           rdf:resource="http://purl.org/dc/dcmitype/StillImage" />
        <dc:title>Moka Symbolic Icon Theme</dc:title>
      </cc:Work>
    </rdf:RDF>
  </metadata>
  <title
     id="title8473">Moka Symbolic Icon Theme</title>
  <defs
     id="defs7386">
    <linearGradient
       id="linearGradient5606"
       osb:paint="solid">
      <stop
         id="stop5608"
         offset="0"
         style="stop-color:#000000;stop-opacity:1;" />
    </linearGradient>
    <filter
       id="filter7554"
       style="color-interpolation-filters:sRGB">
      <feBlend
         id="feBlend7556"
         in2="BackgroundImage"
         mode="darken" />
    </filter>
  </defs>
  <g
     id="layer10"
     style="display:inline;filter:url(#filter7554)"
     transform="translate(-280.00021,288.00336)" />
  <g
     id="layer1"
     style="display:inline"
     transform="translate(-39.000014,-328.99664)" />
  <g
     id="layer14"
     style="display:inline"
     transform="translate(-280.00021,288.00336)" />
  <g
     id="layer15"
     style="display:inline"
     transform="translate(-280.00021,288.00336)" />
  <g
     id="g71291"
     style="display:inline"
     transform="translate(-280.00021,288.00336)" />
  <g
     id="layer2"
     style="display:inline"
     transform="translate(-39.000014,-178.99664)" />
  <g
     id="g6058"
     style="display:inline"
     transform="translate(-39.000014,-178.99664)" />
  <g
     id="layer12"
     style="display:inline"
     transform="translate(-280.00021,288.00336)" />
  <path
     style="display:inline;opacity:1;fill:#bebebe;fill-opacity:1;stroke:none;stroke-width:3;stroke-linecap:round;stroke-miterlimit:4;stroke-dasharray:none;stroke-opacity:1;enable-background:new"
     d="M 8 1 C 7.44772 1 7 1.44772 7 2 C 7 2.0333 7.0018594 2.0665094 7.0058594 2.0996094 C 4.7156788 2.5584298 3.00008 4.57084 3 7 L 3 11.5 L 1 13.5 L 1 14 L 3 14 L 13 14 L 15 14 L 15 13.5 L 13 11.5 L 13 9 L 13 7 C 13.00017 4.57084 11.284461 2.5584394 8.9941406 2.0996094 C 8.9981406 2.0665094 8.99971 2.0333 9 2 C 9 1.44772 8.55228 1 8 1 z M 8 3 A 4.0000086 4.0000086 0 0 1 12 7 L 12 10 L 12 11 L 12 11.921875 L 13 13 L 12 13 L 4 13 L 3 13 L 4 11.921875 L 4 11 L 4 10 L 4 7 A 4.0000086 4.0000086 0 0 1 8 3 z M 8 4 A 3 3 0 0 0 5 7 L 5 12 L 11 12 L 11 7 A 3 3 0 0 0 8 4 z M 6.2695312 15 C 6.6265113 15.61831 7.28603 15.99944 8 16 C 8.71327 15.99874 9.3718856 15.61771 9.7285156 15 L 6.2695312 15 z "
     id="path5938" />
</svg>

<svg xmlns="http://www.w3.org/2000/svg" height="16" width="16" enable-background="new"><defs><filter id="a" color-interpolation-filters="sRGB"><feBlend in2="BackgroundImage" mode="darken"/></filter></defs><path d="M8 1a1 1 0 0 0-.994 1.1A4.988 4.988 0 0 0 3 7v4.5l-2 2v.5h14v-.5l-2-2V7a4.987 4.987 0 0 0-4.006-4.9A1 1 0 0 0 8 1zm0 2a4 4 0 0 1 4 4v4.922L13 13H3l1-1.078V7a4 4 0 0 1 4-4zm0 1a3 3 0 0 0-3 3v5h6V7a3 3 0 0 0-3-3zM6.27 15A2 2 0 0 0 8 16a2 2 0 0 0 1.729-1h-3.46z" fill="#5d656b" stroke-width="3" stroke-linecap="round" enable-background="new"/></svg>
